material/.icons/material/bottle-tonic.svg

<svg xmlns="http://www.w3.org/2000/svg" viewBox="0 0 24 24"><path d="M13 4h-2l-1-2h4l-1 2m6 9v9H5v-9c0-2.76 2.24-5 5-5V6H9V5h6v1h-1v2c2.76 0 5 2.24 5 5z"/></svg>

<?xml version="1.0" encoding="UTF-8"?><!DOCTYPE svg PUBLIC "-//W3C//DTD SVG 1.1//EN" "http://www.w3.org/Graphics/SVG/1.1/DTD/svg11.dtd"><svg xmlns="http://www.w3.org/2000/svg" xmlns:xlink="http://www.w3.org/1999/xlink" version="1.1" id="mdi-bottle-tonic" width="24" height="24" viewBox="0 0 24 24"><path d="M13 4H11L10 2H14L13 4M19 13V22H5V13C5 10.24 7.24 8 10 8V6H9V5H15V6H14V8C16.76 8 19 10.24 19 13Z" /></svg>
